!! Cantigas de Santa Maria, No. 47
!! Transcribed by Higinio Angle/s
!! From Higinio Angle/s, "La Mu/sica de las Cantigas de Santa Mari/a
!! del rey Alfonso el Sabio", Barcelona: Biblioteca Central, 1943
**kern	**text
*M2/2	*Galician
*k[]	*
4a	Vir-
=1	.
2cc	-gen
2cc	San-
=2	.
(4cc	-ta
4b)	.
(4cc	Ma-
4dd)	.
=3	.
(4cc	ri
4b)	.
(4b	.
4a)	.
=4	.
2.b,	-a,
4cc	guar-
=5	.
2dd	-da-
2dd	-nos,
=6	.
(4ee	se
[4dd	.
4dd])	.
4cc	te
=7	.
(4cc	praz,
[4b	.
4b]),	.
4a	da
=8	.
2cc	gran
2cc	sa-
=9	.
(4cc	-be-
4b)	.
(4cc	-do-
4dd)	.
=10	.
(4cc	-ri-
4b)	.
(4b	.
4a)	.
=11	.
2.b,	-a
4a	que
=12	.
(4g	en
4f)	.
(4g	o
4a)	.
=13	.
(4b	de-
4a)	.
(4g	-mo
4f)	.
=14	.
2.g,	jaz.
4a	Ca
=15	.
2cc	e-
2cc	-le
=16	.
(4cc	noit'
4b)	.
(4cc	e
4dd)	.
=17	.
(4cc	di
4b)	.
(4b	.
4a)	.
=18	.
2.b,	-a
4a	pu-
=19	.
(4g	nna
4f)	.
(4g	de
4a)	.
=20	.
(4b	nos
4a)	.
(4g	me-
4f)	.
=21	.
2.g,	-ter
4a	per-
=22	.
2cc	-que
2cc	fa-
=23	.
(4cc	-c5a-
4b)	.
(4cc	-mos
4dd)	.
=24	.
(4cc	er-
4b)	.
(4b	.
4a)	.
=25	.
2.b,	-ro,
4a	por-
=26	.
(4g	-que
4f)	.
(4g	a
4a)	.
=27	.
(4b	De-
4a)	-us
(4g	per-
4f)	.
=28	.
2.g,	-der
4a	a-
=29	.
2cc	-ja-
2cc	-mol-
=30	.
(4cc	-o
4b)	.
(4cc	teu
4dd)	.
=31	.
(4cc	Fi-
4b)	.
(4b	.
4a)	.
=32	.
2.b,	llo,
4cc	que
=33	.
2dd	quis
2dd	por
=34	.
(4ee	nos
[4dd	.
4dd])	.
4cc	so-
=35	.
(4cc	frer
[4b	.
4b]),	.
4a	na
=36	.
2cc	cruz
2cc	pa-
=37	.
(4cc	-xon
4b)	.
(4cc	et
4dd)	.
=38	.
(4cc	mor-
4b)	.
(4b	.
4a)	.
=39	.
2.b,	-te,
4a	que
=40	.
(4g	ou-
4f)	.
(4g	-ves-
4a)	.
=41	.
(4b	-se-
4a)	.
(4g	-mos
4f)	.
=42	.
2.g,	paz.
4a	Vir-
=43	.
2cc	-gen
2cc	San-
=44	.
(4cc	-ta
4b)	.
(4cc	Ma-
4dd)	.
=45	.
(4cc	-ri-
4b)	.
(4b	.
4a)	.
=46	.
2.b,	-a,
4cc	guar-
=47	.
2dd	-da-
2dd	-nos,
=48	.
(4ee	see
[4dd	.
4dd])	.
4cc	te
=49	.
(4cc	praz,
[4b	.
4b]),	.
!! No double bar; incomplete transcription or manuscript source.
*-	*-
